openframe-frontend-core/src/components/icons-v2/brand-logos/twitter.svg

<svg width="24" height="24" viewBox="0 0 24 24" fill="none" xmlns="http://www.w3.org/2000/svg">
<path d="M16.6455 2.88817C17.687 2.96353 18.6744 3.34403 19.5737 3.86376H21.4912C22.1624 3.86376 22.6582 4.26659 22.9048 4.70604C23.1187 5.08754 23.2011 5.58699 23.041 6.07128L22.9575 6.27782L21.9102 8.4326C21.8361 13.8727 19.4852 17.7186 15.7329 19.6738C11.985 21.6265 7.06445 21.5768 2.11426 19.7251C1.6309 19.5443 1.33262 19.0572 1.39062 18.5444C1.44878 18.0318 1.84749 17.6239 2.35889 17.5557C3.58882 17.3915 4.50977 17.1386 5.22705 16.7778C3.71618 15.2471 2.66643 13.713 1.97803 12.064C1.1458 10.0703 0.875 7.9881 0.875 5.68016C0.875358 4.40026 2.31651 3.56039 3.40039 4.29735L3.61279 4.46727L4.10059 4.90526C6.25677 6.78021 8.41659 7.82063 11.0703 8.04003C11.1171 7.43295 11.214 6.84861 11.4028 6.29833C11.7255 5.35818 12.2946 4.57687 13.1885 3.91942L13.603 3.6411C14.5799 3.04229 15.6119 2.81339 16.6455 2.88817ZM16.4829 5.13231C15.8379 5.08569 15.1887 5.24217 14.5215 5.7329C13.98 6.13116 13.6987 6.54132 13.5312 7.02928C13.3491 7.56029 13.2822 8.23932 13.2822 9.21337C13.2819 9.83421 12.7781 10.338 12.1572 10.3384C8.59687 10.3384 5.78522 9.18001 3.16602 7.05712C3.25983 8.59365 3.5271 9.93677 4.05371 11.1982C4.73001 12.818 5.86497 14.3842 7.75098 16.0762C7.98581 16.2868 8.12123 16.5869 8.12451 16.9023C8.12759 17.2174 7.99859 17.519 7.76855 17.7344C7.39781 18.0811 6.99262 18.3715 6.55713 18.6191C9.68111 19.1639 12.5036 18.8193 14.6929 17.6787C17.6442 16.1409 19.6644 13.0513 19.6646 8.16747C19.6646 7.99723 19.703 7.82842 19.7773 7.67528L20.5361 6.11376H19.2661C19.056 6.11374 18.8498 6.05491 18.6714 5.94383C17.8914 5.4577 17.1558 5.181 16.4829 5.13231Z" fill="#888888"/>
</svg>

<svg xmlns="http://www.w3.org/2000/svg" width="24" height="24" fill="none" viewBox="0 0 24 24">
  <path fill="#888" d="M16.645 2.888c1.042.076 2.03.456 2.929.976h1.917c.671 0 1.167.403 1.414.842.214.382.296.881.136 1.365l-.084.207-1.047 2.155c-.074 5.44-2.425 9.286-6.177 11.24-3.748 1.954-8.669 1.904-13.619.052a1.126 1.126 0 0 1 .245-2.17c1.23-.163 2.15-.416 2.868-.777-1.51-1.53-2.56-3.065-3.249-4.714C1.146 10.07.875 7.988.875 5.68c0-1.28 1.442-2.12 2.525-1.383l.213.17.488.438C6.257 6.78 8.417 7.821 11.07 8.04c.046-.607.143-1.191.332-1.742.322-.94.892-1.721 1.785-2.379l.415-.278a5.028 5.028 0 0 1 3.042-.753Zm-.162 2.244c-.645-.046-1.294.11-1.962.6-.541.4-.822.81-.99 1.297-.182.531-.249 1.21-.249 2.184 0 .621-.504 1.125-1.125 1.125-3.56 0-6.372-1.158-8.991-3.28.094 1.536.361 2.879.888 4.14.676 1.62 1.811 3.186 3.697 4.878a1.126 1.126 0 0 1 .018 1.658 6.369 6.369 0 0 1-1.212.885c3.124.545 5.947.2 8.136-.94 2.951-1.538 4.971-4.628 4.972-9.512 0-.17.038-.339.112-.492l.76-1.561h-1.27a1.14 1.14 0 0 1-.596-.17c-.78-.486-1.515-.763-2.188-.812Z"/>
</svg>
